X:1
T:Starvation Blues
M:4/4
L:1/8
K:C
 c| cc cc A A- A2| c c- c2 A2 A2| E8| z4 z2 z c| cc cc A A- A2|c-A c2 c2c-A|\
A-E E6| z4 z2 c2| cc cc BA-A E| cc cc A2 E2| G,2 z2 z4| z4||

